X: 1
T: Oot Be Est Da Vong
M: 4/4
L: 1/8
R: reel
K: Dmaj
dB | AFAB ABd2 | fdfd edBd | AFAB ABde | faef d2 :|
ef | g2ge f2fd | e2ef edB2 | g2ge f2fd | edef a2af | 
g2ge f2fd | edef edBd | AFAB ABde | faef d2 ||
